X:1
T:Glory in the Meeting House
L:1/8
M:2/4
K:D
A/B/d d/B/A/F/|A/B/d d>B|A/B/d d/B/A/G/|F/G/A/F/ D2|
A/B/d d/B/A/F/|A/B/d d>e|f/e/f/e/ d/B/A/G/|F/G/A/F/ D2:|
|:D/E/F/G/ A/B/A/G/|A/B/A/F/ DD/D/|D/E/F/G/ A/B/A/G/|F(D D2:|
"Variations" B- Part
|:d/e/f/g/ a(a|a/)g/f/e/ d/B/A/B/|d/e/f/g/ a/b/a/g/|f(d d2):||
